build/payment/TroykaL.svg

<svg xmlns="http://www.w3.org/2000/svg" fill="none" viewBox="0 0 40 40" focusable="false"><path fill="none" d="M0 0H40V40H0z"/><path fill="none" d="M6 10H34V30H6z"/><rect width="28" height="20" x="6" y="10" fill="#F5F5F6" rx="2"/><path fill="#28303D" fill-rule="evenodd" d="M11.3333 15.875L11.7025 16.0798L11.3348 18.0547C11.3338 18.0599 11.3333 18.0652 11.3333 18.0704C11.3333 18.3077 11.5256 18.5 11.7629 18.5L11.8887 18.5C12.1196 18.5 12.3056 18.3127 12.3056 18.0834L12.3054 18.0712L12.3054 18.0664C12.3054 17.9976 12.3478 17.9356 12.4123 17.9108L13.1564 17.625L13.0522 19.9219L16.2552 19.9219L16.2552 18.5C16.2552 18.5 16.2552 15 13.3023 15C11.8255 15 11.3333 15.875 11.3333 15.875ZM17.4854 15.875L17.8545 16.0798L17.4868 18.0547C17.4859 18.0599 17.4854 18.0652 17.4854 18.0704C17.4854 18.3077 17.6777 18.5 17.9149 18.5L18.0408 18.5C18.2716 18.5 18.4577 18.3127 18.4577 18.0834L18.4575 18.0712L18.4574 18.0664C18.4574 17.9976 18.4998 17.9356 18.5644 17.9108L19.3084 17.625L19.2042 19.9219L22.4073 19.9219L22.4073 18.5C22.4073 18.5 22.4073 15 19.4544 15C17.9776 15 17.4854 15.875 17.4854 15.875ZM23.6376 15.875L24.0068 16.0798L23.6391 18.0547C23.6381 18.0599 23.6376 18.0652 23.6376 18.0704C23.6376 18.3077 23.8299 18.5 24.0672 18.5L24.193 18.5C24.4239 18.5 24.6099 18.3127 24.6099 18.0834L24.6097 18.0712L24.6097 18.0664C24.6097 17.9976 24.6521 17.9356 24.7166 17.9108L25.4607 17.625L25.3565 19.9219L28.5595 19.9219L28.5595 18.5C28.5595 18.5 28.5595 15 25.6066 15C24.1298 15 23.6376 15.875 23.6376 15.875ZM21.3385 22.3088C21.5078 22.3088 21.6451 22.165 21.6451 21.9877C21.6451 21.8103 21.5078 21.6666 21.3385 21.6666C21.1692 21.6666 21.0319 21.8103 21.0319 21.9877C21.0319 22.165 21.1692 22.3088 21.3385 22.3088ZM11.9905 22.5485L10.2666 22.5485C10.1194 22.5485 10 22.6735 10 22.8277C10 22.9819 10.1194 23.1069 10.2666 23.1069L10.8619 23.1069L10.8619 25.3616C10.8619 25.5158 10.9813 25.6408 11.1286 25.6408C11.2758 25.6408 11.3952 25.5158 11.3952 25.3616L11.3952 23.1069L11.9905 23.1069C12.1377 23.1069 12.2571 22.9819 12.2571 22.8277C12.2571 22.6735 12.1377 22.5485 11.9905 22.5485ZM14.711 22.5485L13.8849 22.5485C13.7377 22.5485 13.6183 22.6735 13.6183 22.8277L13.6183 25.3616C13.6183 25.5158 13.7377 25.6408 13.8849 25.6408C14.0322 25.6408 14.1515 25.5158 14.1515 25.3616L14.1515 24.4214L14.711 24.4214C15.204 24.4214 15.6052 24.0013 15.6052 23.4849C15.6052 22.9686 15.204 22.5485 14.711 22.5485ZM17.8792 22.5485C17.3079 22.5485 16.8431 23.085 16.8431 23.7446L16.8431 24.4447C16.8431 25.1042 17.3079 25.6408 17.8792 25.6408C18.4505 25.6408 18.9153 25.1042 18.9153 24.4447L18.9153 23.7446C18.9153 23.085 18.4505 22.5485 17.8792 22.5485ZM22.1715 22.5485C22.0242 22.5485 21.9049 22.6735 21.9049 22.8277L21.9049 23.1724L20.7716 24.2596L20.7716 22.8277C20.7716 22.6735 20.6522 22.5485 20.505 22.5485C20.3577 22.5485 20.2384 22.6735 20.2384 22.8277L20.2384 25.3616C20.2384 25.5158 20.3577 25.6408 20.505 25.6408C20.6522 25.6408 20.7716 25.5158 20.7716 25.3616L20.7716 25.0169L21.9049 23.9296L21.9049 25.3616C21.9049 25.5158 22.0242 25.6408 22.1715 25.6408C22.3187 25.6408 22.4381 25.5158 22.4381 25.3616L22.4381 22.8277C22.4381 22.6735 22.3187 22.5485 22.1715 22.5485ZM26.3042 25.0825L26.0788 25.0825L25.4476 24.0948L26.158 22.9831C26.1885 22.9354 26.2031 22.8815 26.2031 22.8281C26.2031 22.738 26.1616 22.6496 26.0848 22.5958C25.9624 22.5101 25.7968 22.5444 25.7149 22.6725L24.9844 23.8156L24.5848 23.8156L24.5848 22.833C24.5848 22.6788 24.4654 22.5538 24.3181 22.5538C24.1709 22.5538 24.0515 22.6788 24.0515 22.833L24.0515 25.3617C24.0515 25.5159 24.1709 25.6409 24.3181 25.6409C24.4654 25.6409 24.5848 25.5159 24.5848 25.3617L24.5848 24.374L24.9844 24.374L25.7149 25.517C25.7644 25.5944 25.8475 25.6409 25.9365 25.6409L26.3042 25.6409C26.4514 25.6409 26.5708 25.5159 26.5708 25.3617C26.5708 25.2075 26.4514 25.0825 26.3042 25.0825ZM29.9814 25.2847L29.836 24.8994C29.8318 24.8411 29.8107 24.7878 29.7776 24.745L29.0245 22.7507C28.9836 22.6424 28.8837 22.5717 28.7716 22.5743C28.6604 22.5764 28.5622 22.6507 28.5252 22.7605L27.8523 24.7571C27.8232 24.7992 27.8052 24.8501 27.8024 24.9054L27.6748 25.284C27.6644 25.3147 27.6595 25.3461 27.6595 25.3769C27.6595 25.492 27.7279 25.5997 27.8374 25.6402C27.9763 25.6915 28.1286 25.6153 28.1776 25.4698L28.2686 25.1996L29.3759 25.1996L29.4856 25.4901C29.527 25.5997 29.6274 25.6666 29.7336 25.6666C29.7662 25.6666 29.7994 25.6603 29.8315 25.647C29.9363 25.6036 30.0002 25.4985 30.0002 25.3873C30.0002 25.3531 29.9942 25.3184 29.9814 25.2847ZM14.711 23.863L14.1515 23.863L14.1515 23.1069L14.711 23.1069C14.91 23.1069 15.072 23.2765 15.072 23.4849C15.072 23.6934 14.91 23.863 14.711 23.863ZM18.4316 24.4447C18.4316 24.7963 18.1838 25.0824 17.8792 25.0824C17.5746 25.0824 17.3269 24.7963 17.3269 24.4447L17.3269 23.7446C17.3269 23.3929 17.5746 23.1069 17.8792 23.1069C18.1838 23.1069 18.4316 23.3929 18.4316 23.7446L18.4316 24.4447ZM28.4568 24.6412L28.7908 23.6502L29.165 24.6412L28.4568 24.6412Z"/></svg>

<svg xmlns="http://www.w3.org/2000/svg" fill="none" viewBox="0 0 40 40" focusable="false"><path fill="none" d="M0 0h40v40H0z"/><path fill="none" d="M6 10h28v20H6z"/><rect width="28" height="20" x="6" y="10" fill="#F0F2F5" rx="2"/><path fill="#29313D" fill-rule="evenodd" d="m11.33 15.87.37.2-.37 1.98v.02c0 .23.19.43.43.43h.12c.23 0 .42-.19.42-.42v-.02c0-.07.04-.13.11-.15l.74-.29-.1 2.3h3.2V18.5s0-3.5-2.95-3.5c-1.48 0-1.97.87-1.97.87m6.15 0 .37.2-.37 1.98v.02c0 .23.19.43.43.43h.13c.23 0 .41-.19.41-.42v-.02c0-.07.04-.13.11-.15l.74-.29-.1 2.3h3.2V18.5s0-3.5-2.95-3.5c-1.48 0-1.97.87-1.97.87m6.15 0 .37.2-.37 1.98v.02c0 .23.2.43.43.43h.13c.23 0 .41-.19.41-.42v-.02c0-.07.05-.13.11-.15l.75-.29-.11 2.3h3.2V18.5s0-3.5-2.95-3.5c-1.48 0-1.97.87-1.97.87m-2.3 6.43c.17 0 .31-.14.31-.32a.32.32 0 0 0-.31-.32c-.17 0-.3.15-.3.32 0 .18.13.32.3.32m-9.34.24h-1.73c-.15 0-.26.13-.26.28 0 .16.11.28.26.28h.6v2.26c0 .15.12.28.26.28.15 0 .27-.13.27-.28V23.1h.6c.14 0 .26-.12.26-.28 0-.15-.12-.28-.26-.28m2.72 0h-.83c-.15 0-.27.13-.27.28v2.54c0 .15.12.28.27.28s.27-.13.27-.28v-.94h.56c.49 0 .89-.42.89-.94s-.4-.94-.89-.94m3.16 0c-.57 0-1.03.54-1.03 1.2v.7c0 .66.46 1.2 1.03 1.2.58 0 1.04-.54 1.04-1.2v-.7c0-.66-.46-1.2-1.04-1.2m4.3 0c-.15 0-.27.13-.27.28v.35l-1.13 1.08v-1.43c0-.15-.12-.28-.27-.28s-.27.13-.27.28v2.54c0 .15.12.28.27.28s.27-.13.27-.28v-.35l1.13-1.09v1.44c0 .15.12.28.27.28.14 0 .26-.13.26-.28v-2.54c0-.15-.12-.28-.26-.28m4.13 2.54h-.23l-.63-.99.71-1.11c.03-.05.05-.1.05-.16 0-.09-.04-.18-.12-.23a.264.264 0 0 0-.37.08l-.73 1.14h-.4v-.98c0-.16-.12-.28-.27-.28-.14 0-.26.12-.26.28v2.53c0 .15.12.28.26.28.15 0 .27-.13.27-.28v-.99h.4l.73 1.14c.05.08.13.13.22.13h.37c.15 0 .27-.13.27-.28 0-.16-.12-.28-.27-.28m3.68.2-.15-.39a.22.22 0 0 0-.06-.15l-.75-1.99a.27.27 0 0 0-.25-.18c-.11 0-.21.08-.25.19l-.67 1.99a.27.27 0 0 0-.05.15l-.13.38c-.01.03-.02.06-.02.09 0 .12.07.22.18.27.14.05.29-.03.34-.18l.09-.27h1.11l.11.3c.04.1.14.17.25.17.03 0 .06 0 .1-.02.1-.04.17-.15.17-.26 0-.03-.01-.07-.02-.1m-15.27-1.42h-.56v-.76h.56c.2 0 .36.17.36.38s-.16.38-.36.38m3.72.58c0 .35-.25.64-.56.64-.3 0-.55-.29-.55-.64v-.7c0-.35.25-.64.55-.64.31 0 .56.29.56.64zm10.02.2.34-.99.37.99z"/></svg>
